X: 5901
T: Cambridge Caravan Catastrophy
R: reel
M: 4/4
K: Amajor
|:f/b3/2 b3/2g/ a3/2f/ g/e3/2|f/g3/2 f3/2e/ c3/2f/ e/c3/2|f/b3/2 b3/2g/ a3/2f/ g/e3/2|f/g3/2 f3/2e/ c/f3/2 f3/2e/:|
|:c/f3/2 f3/2e/ c/f3/2 f3/2g/|a3/2f/ g3/2e/ c3/2f/ e/B3/2|c/f3/2 f3/2e/ c/f3/2 f3/2g/|a3/2f/ g/e3/2 f2 f3/2e/:|
|:F/B3/2 B3/2c/ d3/2e/ f3/2a/|g/b3/2 e3/2g/ f3/2g/ e/B3/2|F/B3/2 B3/2c/ d3/2e/ f3/2a/|g/b3/2 e3/2g/ f2 f3/2e/:|
|:c/f3/2 f3/2g/ (3agf (3gfe|B/e3/2 e3/2f/ g3/2b/ a/g/f/e/|c/f3/2 f3/2g/ (3agf (3gfe|B/e3/2 g3/2e/ f2 f3/2e/:|
|:fb bg a2 fa|gf eg fe ce|fb bg a2 fa|gf eg ef fe|
fb bg a2 fa|gf eg fe ce|fb bg a2 fa|gf eg ef fe:|
|:cf fc ff cf|fc fg ag fe|Be (3eee ce Be|Ae (3eee gf ef|
cf fc ff cf|fc fg ag fe|Be (3eee gf eg|fe ce ef (3gfe:|
|:FB Bc de fa|(3ggg eg fe cA|FB Bc de fa|gf eg ef fe|
FB Bc de fa|(3ggg eg fe cA|FB Bc de fa|gf eg ef fe:|

